X: 6
T: POLKA: Siege of Ennis
T: Banks of Inverness
C: C: Trad.; S: Séamus Begley
C: Set Leaders: Tanya, Anton
Z: Anton Zille ed. / CreadurMawnOrganig at The Session
N: https://thesession.org/members/26966/sets/89997
M: 2/4
L: 1/8
Q: 1/4=140
K: Gmaj
|:D>E DB,|DE G>A|Bd AB/A/|GE cE|
D>E DB,|DE G>A|Bd AB/A/|1 G2 G/A/G/E/:|2 G2 G>A||
Bd dB|ce e>d|Bd AB/A/|GE ED|
Bd d>B|ce e>f|ge fd|e2 e>f|
ge fd|e/f/e/d/ BA|Bd AB/A/|GE cE|
D>E DB,|DE G>A|Bd AB/A/|G2 G>A||
|:Bd Bd|Bd dB/d/|ed Bd|ed B>A|
Bd Bd|Bd dB/d/|ed BA|AG G2:||
|:GB d2|ed c2|dB GB|A/B/A/G/ ED|
GB d>d|ed c>e|dB GE|1 ED D2:|2 ED GE||

